contributed-vectors/airtel.svg

<svg xmlns="http://www.w3.org/2000/svg" xml:space="preserve" style="fill-rule:evenodd;clip-rule:evenodd;stroke-linejoin:round;stroke-miterlimit:2" viewBox="0 0 192 192"><path d="M164.5 21.5c0-5.519-4.481-10-10-10h-133c-5.519 0-10 4.481-10 10v133c0 5.519 4.481 10 10 10h133c5.519 0 10-4.481 10-10v-133Z" style="fill:#ff837d" transform="translate(8 8)"/><path d="M91.444 127.384c34.938-19.722 30.699-37.299 29.31-39.614-1.461-2.435-7.792-14.855-29.709 4.383-15.971 14.019-25.863 11.549-30.055 9.177h-.001c-5.276-2.275-5.512-8.976-5.512-8.976-.827-6.45 3.505-12.031 6.781-15.248v-.001C76.841 61.436 96 56.606 96 56.606c28.16-8.788 40.429 12.506 40.621 23.978.34 20.302-19.306 43.435-45.419 53.802-26.112 10.367-22.26-8.315-19.901-13.636 2.395-5.401 13.533-17.823 19.901-13.278 6.368 4.546 0 10.025 0 10.025-4.003 3.415-6.599 5.976-8.195 7.889-6.707 9.097 8.407 2.012 8.437 1.998Z" style="fill:#fff" transform="matrix(.92175 0 0 .92175 7.512 7.512)"/></svg>

<?xml version="1.0" encoding="UTF-8" standalone="no"?>
<!DOCTYPE svg PUBLIC "-//W3C//DTD SVG 1.1//EN" "http://www.w3.org/Graphics/SVG/1.1/DTD/svg11.dtd">
<svg width="100%" height="100%" viewBox="0 0 192 192" version="1.1" xmlns="http://www.w3.org/2000/svg" xmlns:xlink="http://www.w3.org/1999/xlink" xml:space="preserve" xmlns:serif="http://www.serif.com/" style="fill-rule:evenodd;clip-rule:evenodd;stroke-linejoin:round;stroke-miterlimit:2;">
    <g id="Layer1">
        <g transform="matrix(1,0,0,1,8,8)">
            <path d="M164.5,21.5C164.5,15.981 160.019,11.5 154.5,11.5L21.5,11.5C15.981,11.5 11.5,15.981 11.5,21.5L11.5,154.5C11.5,160.019 15.981,164.5 21.5,164.5L154.5,164.5C160.019,164.5 164.5,160.019 164.5,154.5L164.5,21.5Z" style="fill:rgb(255,131,125);"/>
        </g>
        <g transform="matrix(0.921746,0,0,0.921746,7.51237,7.51228)">
            <path d="M91.444,127.384C126.382,107.662 122.143,90.085 120.754,87.77C119.293,85.335 112.962,72.915 91.045,92.153C75.074,106.172 65.182,103.702 60.99,101.33L60.989,101.33C55.713,99.055 55.477,92.354 55.477,92.354L55.477,92.354C54.65,85.904 58.982,80.323 62.258,77.106L62.258,77.105C76.841,61.436 96,56.606 96,56.606L96,56.606C124.16,47.818 136.429,69.112 136.621,80.584C136.961,100.886 117.315,124.019 91.202,134.386C65.09,144.753 68.942,126.071 71.301,120.75C73.696,115.349 84.834,102.927 91.202,107.472C97.57,112.018 91.202,117.497 91.202,117.497C87.199,120.912 84.603,123.473 83.007,125.386C76.3,134.483 91.414,127.398 91.444,127.384Z" style="fill:white;"/>
        </g>
    </g>
</svg>
